src/img/Link.svg

<svg width="20" height="20" viewBox="0 0 20 20" fill="none" xmlns="http://www.w3.org/2000/svg">
<g clip-path="url(#clip0)">
<path d="M12.705 2.27281H18.863L17.73 1.13981V7.29981C17.735 7.59879 17.8533 7.88472 18.061 8.09981C18.504 8.53981 19.218 8.53981 19.661 8.09981C19.869 7.88481 19.988 7.59981 19.991 7.29981V1.13981C19.9864 0.841205 19.8658 0.556111 19.6547 0.344844C19.4436 0.133578 19.1586 0.0127107 18.86 0.0078125H12.702C12.403 0.0127998 12.1171 0.131104 11.902 0.338813C11.462 0.781812 11.462 1.49581 11.902 1.93881C12.117 2.14581 12.402 2.26481 12.702 2.26881L12.705 2.27281Z" fill="white"/>
<path d="M9.44603 12.1599L19.668 1.93588C20.108 1.49288 20.108 0.778883 19.668 0.335883C19.4553 0.124643 19.1678 0.00572376 18.868 0.00488281C18.5693 0.0108565 18.2837 0.129017 18.068 0.335883L14.61 3.79188L11.653 6.73988L7.85303 10.5519C7.41303 10.9949 7.41303 11.7089 7.85303 12.1519C8.06579 12.3631 8.35321 12.482 8.65303 12.4829C8.95179 12.4769 9.23738 12.3587 9.45303 12.1519L9.44603 12.1599ZM17.733 11.8299V16.6969C17.7458 16.9666 17.7405 17.2369 17.717 17.5059L17.757 17.2059C17.737 17.3359 17.705 17.4639 17.657 17.5859L17.77 17.3159C17.7154 17.4438 17.6456 17.5647 17.562 17.6759L17.739 17.4459C17.653 17.5539 17.555 17.6519 17.447 17.7379L17.677 17.5609C17.577 17.6449 17.445 17.7149 17.317 17.7689L17.587 17.6559C17.4644 17.704 17.3365 17.7375 17.206 17.7559L17.506 17.7159C17.3179 17.7337 17.1288 17.739 16.94 17.7319H2.72303C2.64574 17.7322 2.56853 17.7269 2.49203 17.7159L2.79203 17.7559C2.66203 17.7359 2.53403 17.7039 2.41203 17.6559L2.68203 17.7689C2.55403 17.7139 2.43203 17.6449 2.32203 17.5609L2.55203 17.7379C2.44247 17.6515 2.34346 17.5524 2.25703 17.4429L2.43403 17.6729C2.35003 17.5729 2.28003 17.4409 2.22603 17.3129L2.33903 17.5829C2.29103 17.4605 2.25747 17.333 2.23903 17.2029L2.27903 17.5029C2.26103 17.3149 2.25603 17.1259 2.26303 16.9369V2.73688C2.2627 2.65959 2.26805 2.58239 2.27903 2.50588L2.23903 2.80588C2.25903 2.67588 2.29103 2.54788 2.33903 2.42588L2.22603 2.69588C2.28103 2.56788 2.35003 2.44588 2.43403 2.33588L2.25703 2.56588C2.34303 2.45788 2.44103 2.35988 2.54903 2.27388L2.31903 2.45088C2.41903 2.36688 2.55103 2.29688 2.67903 2.24288L2.40903 2.35588C2.5317 2.30781 2.65956 2.27425 2.79003 2.25588L2.49003 2.29588C2.71678 2.27583 2.94459 2.27048 3.17203 2.27988H8.16603C8.465 2.2749 8.75093 2.15659 8.96603 1.94888C9.40603 1.50588 9.40603 0.791883 8.96603 0.348883C8.75103 0.140883 8.46603 0.0218828 8.16603 0.0188828H2.71603C2.22849 0.0212367 1.75027 0.152695 1.33003 0.399883C1.10128 0.533734 0.894805 0.702425 0.718028 0.899883C0.538138 1.09513 0.389089 1.31668 0.276028 1.55688C0.201715 1.71355 0.139532 1.8757 0.0900277 2.04188C0.0474484 2.22607 0.0193625 2.41331 0.00602767 2.60188V16.5379C-0.0128293 16.983 0.00926366 17.4288 0.0720277 17.8699C0.172028 18.3859 0.442028 18.8579 0.822028 19.2239C1.01003 19.4109 1.22603 19.5679 1.46203 19.6879C1.62203 19.7679 1.78603 19.8339 1.95603 19.8879C2.13291 19.9349 2.31362 19.966 2.49603 19.9809C2.62889 19.9947 2.76249 20.0001 2.89603 19.9969H17.276C17.7117 19.9884 18.1405 19.8861 18.533 19.6969C19.0041 19.4573 19.3918 19.0808 19.645 18.6169C19.8668 18.2102 19.9849 17.7551 19.989 17.2919V11.8439C19.984 11.5449 19.8657 11.259 19.658 11.0439C19.215 10.6039 18.501 10.6039 18.058 11.0439C17.8568 11.2668 17.7425 11.5546 17.736 11.8549L17.733 11.8299Z" fill="white"/>
</g>
<defs>
<clipPath id="clip0">
<rect width="20" height="19.986" fill="white"/>
</clipPath>
</defs>
</svg>

<svg xmlns="http://www.w3.org/2000/svg" width="20" height="19.986" xmlns:v="https://vecta.io/nano"><path d="M12.705 2.273h6.158L17.73 1.14V7.3a1.18 1.18 0 0 0 .331.8c.443.44 1.157.44 1.6 0 .208-.215.327-.5.33-.8V1.14A1.15 1.15 0 0 0 18.86.008h-6.158a1.18 1.18 0 0 0-.8.331c-.44.443-.44 1.157 0 1.6.215.207.5.326.8.33z"/><path d="M9.446 12.16L19.668 1.936c.44-.443.44-1.157 0-1.6a1.14 1.14 0 0 0-.8-.331 1.19 1.19 0 0 0-.8.331L14.61 3.792 11.653 6.74l-3.8 3.812c-.44.443-.44 1.157 0 1.6a1.14 1.14 0 0 0 .8.331 1.19 1.19 0 0 0 .8-.331zm8.287-.33v4.867a6.02 6.02 0 0 1-.016.809l.04-.3c-.02.13-.052.258-.1.38l.113-.27a1.73 1.73 0 0 1-.208.36l.177-.23c-.086.108-.184.206-.292.292l.23-.177c-.1.084-.232.154-.36.208l.27-.113a1.69 1.69 0 0 1-.381.1l.3-.04a4.29 4.29 0 0 1-.566.016H2.723a1.58 1.58 0 0 1-.231-.016l.3.04c-.13-.02-.258-.052-.38-.1l.27.113c-.128-.055-.25-.124-.36-.208l.23.177a1.78 1.78 0 0 1-.295-.295l.177.23c-.084-.1-.154-.232-.208-.36l.113.27a1.69 1.69 0 0 1-.1-.38l.04.3c-.018-.188-.023-.377-.016-.566v-14.2a1.58 1.58 0 0 1 .016-.231l-.04.3c.02-.13.052-.258.1-.38l-.113.27c.055-.128.124-.25.208-.36l-.177.23c.086-.108.184-.206.292-.292l-.23.177c.1-.084.232-.154.36-.208l-.27.113a1.69 1.69 0 0 1 .381-.1l-.3.04a5.27 5.27 0 0 1 .682-.016h4.994a1.18 1.18 0 0 0 .8-.331c.44-.443.44-1.157 0-1.6-.215-.208-.5-.327-.8-.33h-5.45A2.76 2.76 0 0 0 1.33.4a2.55 2.55 0 0 0-.612.5 2.61 2.61 0 0 0-.442.657 3.39 3.39 0 0 0-.186.485 3.62 3.62 0 0 0-.084.56v13.936a7.27 7.27 0 0 0 .066 1.332c.1.516.37.988.75 1.354.188.187.404.344.64.464.16.08.324.146.494.2a3.08 3.08 0 0 0 .54.093 3.14 3.14 0 0 0 .4.016h14.38a3.03 3.03 0 0 0 1.257-.3 2.62 2.62 0 0 0 1.112-1.08 2.82 2.82 0 0 0 .344-1.325v-5.448a1.18 1.18 0 0 0-.331-.8c-.443-.44-1.157-.44-1.6 0a1.25 1.25 0 0 0-.322.811z"/></svg>
